X: 141
T: No_224_Ball_Game_Song_(g).krn
N: Derived from No_224_Ball_Game_Song_(g).krn
%%abc-version 2.0
%%abcx-abcm2ps-target-version 5.9.1 (29 Sep 2008)
%%abc-creator hum2abc beta
%%abcx-conversion-date 2019/03/15 08:38:45
%%humdrum-veritas 283356041
%%humdrum-veritas-data 4191127917
%%linebreak <none>
%%barnumbers 0
L: 1/16
M: 2/4
K: F clef=bass
[K:clef=bass][M:2/4]z4z3 D, | 
D,F,F,F,F,4 | 
A,2A,2 G,2F,3/F,/ | 
D,3/F,/F,F, F,2 z2 | 
F,2F,2 F,3F, | 
D,3/F,/F,F, F,2 z2 | 
F,3/D,/F,F, F,3F, | 
F,3/F,/F,2C4 | 
C2CB, G,2F,3/F,/ | 
D,F,F,F, F,2 z2 ||  
[M:3/4]D,3/F,/F,2 F,2C2- C2 z2 |]  



